docs/icons/stroke_peers_large.svg

<svg xmlns="http://www.w3.org/2000/svg" viewBox="0 0 19.9 18.8"><path d="M14.9 10.7c-.4 0-.8.1-1.1.2l-2.3-3.6c.7-.6 1.2-1.5 1.2-2.5 0-1.7-1.4-3.1-3.1-3.1-1.7 0-3.1 1.4-3.1 3.1 0 1 .5 1.9 1.2 2.5L6 10.9c-.3-.1-.6-.2-1-.2-1.7 0-3.1 1.4-3.1 3.1S3.2 17 5 17c1.7 0 3.1-1.4 3.1-3.1 0-1.2-.7-2.2-1.6-2.7l1.7-3.5c.4.2.9.3 1.4.3.5 0 1-.1 1.4-.4l2.3 3.6c-.9.6-1.5 1.5-1.5 2.6 0 1.7 1.4 3.1 3.1 3.1 1.7 0 3.1-1.4 3.1-3.1s-1.3-3.1-3.1-3.1zm-8.8.9l-1.9 4.7c-.2 0-.3-.1-.4-.2l1.9-4.7c.1.1.3.2.4.2zm-2.6.2l-1 2.6c0-.2-.1-.3-.1-.5 0-.9.5-1.6 1.1-2.1zm-.9 3.1l1.3-3.3c.2-.1.4-.1.6-.2l-1.6 4c-.1-.2-.2-.3-.3-.5zm.6.8l1.7-4.3h.5L3.5 16l-.3-.3zm3.2.3l1.1-2.7c0 .2.1.4.1.6-.1.9-.5 1.7-1.2 2.1zm.9-3.1L6 16.2c-.2.1-.4.1-.6.2l1.6-4c.1.1.2.3.3.5zm-.5-.8L5 16.4h-.5l1.8-4.6c.2.1.3.2.5.3zm5.1-8.3l-1.3 3.4c-.2.1-.4.1-.6.2l1.6-4c.1.1.2.2.3.4zM9.6 7.4h-.4L11 2.7c.1.1.3.2.4.3L9.6 7.4zm-.8-.1c-.2 0-.3-.1-.4-.2l1.9-4.7c.2 0 .3.1.4.2L8.8 7.3zm.3-4.9l-1.6 4-.3-.6 1.3-3.3c.2 0 .4-.1.6-.1zm-1 .4l-1 2.6C7 5.2 7 5 7 4.9c0-.9.4-1.6 1.1-2.1zm-.4 3.8l1.7-4.3h.5L8.1 7c-.1-.1-.2-.3-.4-.4zM11 7l1-2.7c0 .2.1.4.1.6 0 .9-.5 1.6-1.1 2.1zm6.3 5.9L16 16.2c-.2.1-.4.2-.6.2l1.6-4c.1.2.2.3.3.5zm-2.4-1.6h.4L13.6 16c-.1-.1-.3-.2-.4-.3l1.7-4.4c0 .1 0 0 0 0zm.8.2c.2 0 .3.1.4.2l-1.9 4.7c-.2 0-.3-.1-.4-.2l1.9-4.7zm-2.1.3l-1.1 2.7c0-.2-.1-.4-.1-.6 0-.9.5-1.7 1.2-2.1zm-1 3.1l1.3-3.4c.2-.1.4-.1.6-.2l-1.6 4.1c-.1-.1-.2-.3-.3-.5zm2 1.5l1.8-4.6c.1.1.3.2.4.3l-1.7 4.3h-.5zm1.8-.4l1-2.6c0 .2.1.3.1.5 0 .8-.4 1.6-1.1 2.1z"/></svg>

<?xml version="1.0" encoding="utf-8"?>
<svg version="1.1" xmlns="http://www.w3.org/2000/svg" xmlns:xlink="http://www.w3.org/1999/xlink" viewBox="0 0 19.9 18.8" xml:space="preserve">
<path d="M14.9,10.7c-0.4,0-0.8,0.1-1.1,0.2l-2.3-3.6c0.7-0.6,1.2-1.5,1.2-2.5c0-1.7-1.4-3.1-3.1-3.1c-1.7,0-3.1,1.4-3.1,3.1
	c0,1,0.5,1.9,1.2,2.5l-1.7,3.6c-0.3-0.1-0.6-0.2-1-0.2c-1.7,0-3.1,1.4-3.1,3.1S3.2,17,5,17c1.7,0,3.1-1.4,3.1-3.1
	c0-1.2-0.7-2.2-1.6-2.7l1.7-3.5C8.6,7.9,9.1,8,9.6,8c0.5,0,1-0.1,1.4-0.4l2.3,3.6c-0.9,0.6-1.5,1.5-1.5,2.6c0,1.7,1.4,3.1,3.1,3.1
	c1.7,0,3.1-1.4,3.1-3.1S16.7,10.7,14.9,10.7z M6.1,11.6l-1.9,4.7c-0.2,0-0.3-0.1-0.4-0.2l1.9-4.7C5.8,11.5,6,11.6,6.1,11.6z
	 M3.5,11.8l-1,2.6c0-0.2-0.1-0.3-0.1-0.5C2.4,13,2.9,12.3,3.5,11.8z M2.6,14.9l1.3-3.3c0.2-0.1,0.4-0.1,0.6-0.2l-1.6,4
	C2.8,15.2,2.7,15.1,2.6,14.9z M3.2,15.7l1.7-4.3c0,0,0.1,0,0.1,0c0.1,0,0.3,0,0.4,0L3.5,16C3.4,15.9,3.3,15.8,3.2,15.7z M6.4,16
	l1.1-2.7c0,0.2,0.1,0.4,0.1,0.6C7.5,14.8,7.1,15.6,6.4,16z M7.3,12.9L6,16.2c-0.2,0.1-0.4,0.1-0.6,0.2l1.6-4
	C7.1,12.5,7.2,12.7,7.3,12.9z M6.8,12.1L5,16.4c0,0,0,0-0.1,0c-0.1,0-0.3,0-0.4,0l1.8-4.6C6.5,11.9,6.6,12,6.8,12.1z M11.9,3.8
	l-1.3,3.4c-0.2,0.1-0.4,0.1-0.6,0.2l1.6-4C11.7,3.5,11.8,3.6,11.9,3.8z M9.6,7.4c-0.1,0-0.3,0-0.4,0L11,2.7c0.1,0.1,0.3,0.2,0.4,0.3
	L9.6,7.4C9.6,7.4,9.6,7.4,9.6,7.4z M8.8,7.3c-0.2,0-0.3-0.1-0.4-0.2l1.9-4.7c0.2,0,0.3,0.1,0.4,0.2L8.8,7.3z M9.1,2.4l-1.6,4
	C7.4,6.2,7.3,6,7.2,5.8l1.3-3.3C8.7,2.5,8.9,2.4,9.1,2.4z M8.1,2.8l-1,2.6C7,5.2,7,5,7,4.9C7,4,7.4,3.3,8.1,2.8z M7.7,6.6l1.7-4.3
	c0,0,0.1,0,0.1,0c0.1,0,0.3,0,0.4,0L8.1,7C8,6.9,7.9,6.7,7.7,6.6z M11,7L12,4.3c0,0.2,0.1,0.4,0.1,0.6C12.1,5.8,11.6,6.5,11,7z
	 M17.3,12.9L16,16.2c-0.2,0.1-0.4,0.2-0.6,0.2l1.6-4C17.1,12.6,17.2,12.7,17.3,12.9z M14.9,11.3c0.2,0,0.3,0,0.4,0L13.6,16
	c-0.1-0.1-0.3-0.2-0.4-0.3L14.9,11.3C14.9,11.4,14.9,11.3,14.9,11.3z M15.7,11.5c0.2,0,0.3,0.1,0.4,0.2l-1.9,4.7
	c-0.2,0-0.3-0.1-0.4-0.2L15.7,11.5z M13.6,11.8l-1.1,2.7c0-0.2-0.1-0.4-0.1-0.6C12.4,13,12.9,12.2,13.6,11.8z M12.6,14.9l1.3-3.4
	c0.2-0.1,0.4-0.1,0.6-0.2l-1.6,4.1C12.8,15.3,12.7,15.1,12.6,14.9z M14.6,16.4l1.8-4.6c0.1,0.1,0.3,0.2,0.4,0.3l-1.7,4.3
	c0,0-0.1,0-0.1,0C14.8,16.4,14.7,16.4,14.6,16.4z M16.4,16l1-2.6c0,0.2,0.1,0.3,0.1,0.5C17.5,14.7,17.1,15.5,16.4,16z"/>
</svg>
